usr/share/icons/biglinux-icons-material-dark/22/places/folder-txt.svg

<svg width="22" height="22" version="1.1" xmlns="http://www.w3.org/2000/svg">
 <defs>
  <style id="current-color-scheme" type="text/css">.ColorScheme-Text { color:#dedede; }</style>
 </defs>
 <path class="ColorScheme-Text" d="m10 3c-1.108 0-2 0.892-2 2v1h-2c-1.108 0-2 0.892-2 2v9c0 1.108 0.892 2 2 2h6c1.108 0 2-0.892 2-2v-1h2c1.108 0 2-0.892 2-2v-6l-5-5h-1zm0 1h2v5h5v5c0 0.554-0.446 1-1 1h-2v-4l-5-5v-1c0-0.1385 0.027656-0.27091 0.078125-0.39062 0.15141-0.35916 0.50638-0.60938 0.92188-0.60938zm3 0.41406 3.5859 3.5859h-3.5859zm-7 2.5859h2v5h5v5c0 0.554-0.446 1-1 1h-6c-0.554 0-1-0.446-1-1v-9c0-0.1385 0.027656-0.27091 0.078125-0.39062 0.15141-0.35916 0.50638-0.60938 0.92188-0.60938zm3 0.41406 3.5859 3.5859h-3.5859z" fill="currentColor"/>
</svg>

<svg xmlns="http://www.w3.org/2000/svg" width="22" height="22">
<defs>
<style id="current-color-scheme" type="text/css">
.ColorScheme-Text{color:#dedede}
</style>
</defs>
<path fill="currentColor" d="M10 3c-1.108 0-2 .892-2 2v1H6c-1.108 0-2 .892-2 2v9c0 1.108.892 2 2 2h6c1.108 0 2-.892 2-2v-1h2c1.108 0 2-.892 2-2V8l-5-5h-1zm0 1h2v5h5v5c0 .554-.446 1-1 1h-2v-4L9 6V5q.002-.208.078-.39A1 1 0 0 1 10 4m3 .414L16.586 8H13zM6 7h2v5h5v5c0 .554-.446 1-1 1H6c-.554 0-1-.446-1-1V8q.002-.21.078-.39A1 1 0 0 1 6 7m3 .414L12.586 11H9z" class="ColorScheme-Text"/>
</svg>
